X:198
T:Seven Stars
M:6/8
R:Jig
K:D
|:d2A A2F| GAB A3| Bcd efg| fed cBA|
|d2A A2F| GAB A3| Bcd efg| Adc d3:|
|:e2A e2A| efg f3| efg fed| cdB A3|
|BGB A3| BGB A3| Bcd efg| Adc d3:|



